X:507
L:1/8
M:2/2
K:D
 A2 | d2 d2 e>cA>c | d2 d2 e>cA>c | d2 d2 e>dc>d | e2 [ca]2 [ca]2 A2 | d2 d2 e>cA>c | 
 d2 d2 e>cA>c | d2 d2 e>de>c | d2 [Fd]2 [Fd]2 :: (cd) | e2 e2 e>cA>c | e2 (e>c) A2 (e>f) | 
 g2 g2 g>ec>e | g2 (g>e) c2 (g>a) | b2 (b>a) g2 (g>f) | e2 (e>d) c2 (c>B) |1 A>BA>^G A>dc>B | 
 A2 [ca]2 [ca]2 :|2 A>cB>A ^G>AB>c | d2 [Fd]2 [Fd]2 ||

